;FLAVOR:UltiGCode
;TIME:498
;MATERIAL:753
;MATERIAL2:0
;NOZZLE_DIAMETER:0.4
;Generated with Cura_SteamEngine 3.2.1
M82 ;absolute extrusion mode

;LAYER_COUNT:39
;LAYER:0
M107
G0 F3600 X100.384 Y100.372 Z0.3
;TYPE:SKIRT
G1 F1800 X100.555 Y100.203 E0.02885
G1 X101.984 Y98.974 E0.25503
G1 X102.206 Y98.811 E0.28808
G1 X104.196 Y97.571 E0.56944
G1 X104.41 Y97.457 E0.59854
G1 X105.701 Y96.877 E0.76838
G1 X105.899 Y96.802 E0.79378
G1 X107.699 Y96.236 E1.02021
G1 X107.968 Y96.174 E1.05334
G1 X110.283 Y95.821 E1.33435
G1 X110.553 Y95.8 E1.36684
G1 X112.44 Y95.799 E1.59328
G1 X112.624 Y95.808 E1.61539
G1 X113.562 Y95.904 E1.72854
G1 X113.742 Y95.932 E1.7504
G1 X115.589 Y96.312 E1.97668
G1 X115.823 Y96.377 E2.00582
G1 X117.593 Y96.999 E2.23096
G1 X117.816 Y97.095 E2.26009
G1 X119.485 Y97.949 E2.48507
G1 X119.693 Y98.073 E2.51413
G1 X121.237 Y99.147 E2.73982
G1 X121.426 Y99.298 E2.76885
G1 X122.813 Y100.57 E2.99469
G1 X122.962 Y100.725 E3.02049
G1 X123.882 Y101.798 E3.1901
G1 X124.01 Y101.967 E3.21554
G1 X125.058 Y103.528 E3.44116
G1 X125.18 Y103.738 E3.4703
G1 X126.011 Y105.432 E3.69672
G1 X126.103 Y105.658 E3.726
G1 X126.696 Y107.444 E3.95183
G1 X126.757 Y107.678 E3.98085
G1 X127.104 Y109.522 E4.20601
G1 X127.134 Y109.794 E4.23885
G1 X127.213 Y112.143 E4.52089
G1 X127.198 Y112.446 E4.55729
G1 X126.881 Y114.78 E4.83994
G1 X126.823 Y115.048 E4.87285
G1 X126.29 Y116.851 E5.09846
G1 X126.206 Y117.078 E5.12751
G1 X125.438 Y118.788 E5.35245
G1 X125.324 Y119.002 E5.38155
G1 X124.331 Y120.597 E5.60701
G1 X124.189 Y120.794 E5.63615
G1 X122.988 Y122.244 E5.86209
G1 X122.82 Y122.422 E5.89146
G1 X121.434 Y123.695 E6.11729
G1 X121.244 Y123.846 E6.14641
G1 X119.695 Y124.924 E6.37287
G1 X119.488 Y125.049 E6.40189
G1 X117.821 Y125.903 E6.62665
G1 X117.597 Y125.999 E6.6559
G1 X115.821 Y126.623 E6.88179
G1 X115.587 Y126.688 E6.91093
G1 X113.736 Y127.069 E7.13771
G1 X113.495 Y127.102 E7.1669
G1 X111.619 Y127.229 E7.39254
G1 X111.375 Y127.229 E7.42182
G1 X109.501 Y127.102 E7.64721
G1 X109.23 Y127.063 E7.68007
G1 X106.93 Y126.549 E7.96287
G1 X106.671 Y126.47 E7.99537
G1 X104.92 Y125.789 E8.22082
G1 X104.697 Y125.684 E8.2504
G1 X103.054 Y124.77 E8.47601
G1 X102.851 Y124.639 E8.505
G1 X101.347 Y123.515 E8.73032
G1 X101.163 Y123.356 E8.7595
G1 X99.818 Y122.033 E8.98589
G1 X99.656 Y121.852 E9.01504
G1 X98.51 Y120.371 E9.23976
G1 X98.376 Y120.17 E9.26874
G1 X97.43 Y118.533 E9.49563
G1 X97.322 Y118.313 E9.52504
G1 X96.611 Y116.574 E9.75048
G1 X96.534 Y116.344 E9.77959
G1 X96.063 Y114.524 E10.00518
G1 X96.019 Y114.285 E10.03435
G1 X95.797 Y112.414 E10.26044
G1 X95.785 Y112.142 E10.29311
G1 X95.863 Y109.801 E10.57419
G1 X95.893 Y109.529 E10.60703
G1 X96.24 Y107.681 E10.83266
G1 X96.301 Y107.446 E10.8618
G1 X96.895 Y105.658 E11.08789
G1 X96.987 Y105.432 E11.11717
G1 X97.818 Y103.738 E11.34359
G1 X97.939 Y103.528 E11.37267
G1 X98.983 Y101.972 E11.59753
G1 X99.133 Y101.779 E11.62686
G1 X100.384 Y100.372 E11.85279
G0 F3600 X100.683 Y100.638
G1 F1800 X100.816 Y100.507 E11.87519
G1 X102.245 Y99.278 E12.10137
G1 X102.418 Y99.151 E12.12712
G1 X104.408 Y97.911 E12.40849
G1 X104.574 Y97.822 E12.43109
G1 X105.865 Y97.242 E12.60092
G1 X106.019 Y97.183 E12.62071
G1 X107.819 Y96.617 E12.84714
G1 X108.028 Y96.569 E12.87287
G1 X110.343 Y96.216 E13.15388
G1 X110.553 Y96.2 E13.17916
G1 X112.44 Y96.199 E13.4056
G1 X112.584 Y96.206 E13.4229
G1 X113.522 Y96.302 E13.53605
G1 X113.661 Y96.324 E13.55293
G1 X115.508 Y96.704 E13.77922
G1 X115.69 Y96.754 E13.80187
G1 X117.46 Y97.376 E14.027
G1 X117.634 Y97.451 E14.04974
G1 X119.303 Y98.305 E14.27471
G1 X119.464 Y98.402 E14.29727
G1 X121.008 Y99.476 E14.52296
G1 X121.155 Y99.593 E14.54551
G1 X122.542 Y100.865 E14.77134
G1 X122.659 Y100.986 E14.79154
G1 X123.579 Y102.059 E14.96115
G1 X123.678 Y102.19 E14.98085
G1 X124.726 Y103.751 E15.20647
G1 X124.821 Y103.914 E15.22911
G1 X125.652 Y105.608 E15.45554
G1 X125.724 Y105.784 E15.47835
G1 X126.317 Y107.57 E15.70418
G1 X126.364 Y107.752 E15.72674
G1 X126.711 Y109.596 E15.9519
G1 X126.734 Y109.808 E15.97749
G1 X126.813 Y112.157 E16.25953
G1 X126.801 Y112.392 E16.28776
G1 X126.484 Y114.726 E16.57042
G1 X126.44 Y114.935 E16.59605
G1 X125.907 Y116.738 E16.82166
G1 X125.841 Y116.915 E16.84433
G1 X125.073 Y118.625 E17.06928
G1 X124.984 Y118.791 E17.09188
G1 X123.991 Y120.386 E17.31734
G1 X123.881 Y120.539 E17.33995
G1 X122.68 Y121.989 E17.56589
G1 X122.549 Y122.127 E17.58872
G1 X121.163 Y123.4 E17.81455
G1 X121.016 Y123.518 E17.83717
G1 X119.467 Y124.596 E18.06363
G1 X119.305 Y124.693 E18.08629
G1 X117.638 Y125.547 E18.31105
G1 X117.464 Y125.622 E18.33379
G1 X115.688 Y126.246 E18.55968
G1 X115.506 Y126.296 E18.58233
G1 X113.655 Y126.677 E18.80911
G1 X113.468 Y126.703 E18.83176
G1 X111.592 Y126.83 E19.0574
G1 X111.402 Y126.83 E19.0802
G1 X109.528 Y126.703 E19.30559
G1 X109.318 Y126.672 E19.33107
G1 X107.018 Y126.158 E19.61387
G1 X106.816 Y126.097 E19.6392
G1 X105.065 Y125.416 E19.86465
G1 X104.891 Y125.334 E19.88773
G1 X103.248 Y124.42 E20.11334
G1 X103.091 Y124.318 E20.13581
G1 X101.587 Y123.194 E20.36112
G1 X101.443 Y123.071 E20.38385
G1 X100.098 Y121.748 E20.61024
G1 X99.973 Y121.607 E20.63286
G1 X98.827 Y120.126 E20.85757
G1 X98.722 Y119.969 E20.88023
G1 X97.776 Y118.332 E21.10712
G1 X97.692 Y118.162 E21.12987
G1 X96.981 Y116.423 E21.35532
G1 X96.922 Y116.244 E21.37794
G1 X96.451 Y114.424 E21.60353
G1 X96.416 Y114.238 E21.62624
G1 X96.194 Y112.367 E21.85234
G1 X96.185 Y112.155 E21.8778
G1 X96.263 Y109.814 E22.15888
G1 X96.286 Y109.603 E22.18435
G1 X96.633 Y107.755 E22.40998
G1 X96.68 Y107.572 E22.43265
G1 X97.274 Y105.784 E22.65875
G1 X97.346 Y105.608 E22.68156
G1 X98.177 Y103.914 E22.90799
G1 X98.271 Y103.751 E22.93057
G1 X99.315 Y102.195 E23.15542
G1 X99.432 Y102.045 E23.17825
G1 X100.683 Y100.638 E23.40417
G0 F3600 X100.982 Y100.904
G1 F1800 X101.077 Y100.81 E23.42021
G1 X102.506 Y99.581 E23.64639
G1 X102.629 Y99.49 E23.66475
G1 X104.619 Y98.25 E23.94611
G1 X104.738 Y98.187 E23.96227
G1 X106.029 Y97.607 E24.13211
G1 X106.139 Y97.565 E24.14624
G1 X107.939 Y96.999 E24.37267
G1 X108.088 Y96.964 E24.39103
G1 X110.403 Y96.611 E24.67204
G1 X110.553 Y96.6 E24.69009
G1 X112.44 Y96.599 E24.91653
G1 X112.543 Y96.604 E24.92891
G1 X113.481 Y96.7 E25.04205
G1 X113.581 Y96.716 E25.05421
G1 X115.428 Y97.096 E25.28049
G1 X115.558 Y97.132 E25.29668
G1 X117.328 Y97.754 E25.52181
G1 X117.452 Y97.807 E25.53799
G1 X119.121 Y98.661 E25.76297
G1 X119.236 Y98.73 E25.77906
G1 X120.78 Y99.804 E26.00476
G1 X120.885 Y99.888 E26.02089
G1 X122.272 Y101.16 E26.24673
G1 X122.355 Y101.246 E26.26107
G1 X123.275 Y102.319 E26.43068
G1 X123.346 Y102.413 E26.44481
G1 X124.394 Y103.974 E26.67043
G1 X124.462 Y104.091 E26.68667
G1 X125.293 Y105.785 E26.9131
G1 X125.344 Y105.91 E26.9293
G1 X125.937 Y107.696 E27.15512
G1 X125.971 Y107.826 E27.17125
G1 X126.318 Y109.67 E27.39641
G1 X126.334 Y109.821 E27.41463
G1 X126.413 Y112.17 E27.69667
G1 X126.405 Y112.339 E27.71697
G1 X126.088 Y114.673 E27.99962
G1 X126.056 Y114.821 E28.01779
G1 X125.523 Y116.624 E28.24341
G1 X125.476 Y116.751 E28.25966
G1 X124.708 Y118.461 E28.48461
G1 X124.645 Y118.58 E28.50076
G1 X123.652 Y120.175 E28.72623
G1 X123.573 Y120.284 E28.74238
G1 X122.372 Y121.734 E28.96831
G1 X122.278 Y121.832 E28.98461
G1 X120.892 Y123.105 E29.21044
G1 X120.787 Y123.19 E29.22665
G1 X119.238 Y124.268 E29.45311
G1 X119.123 Y124.337 E29.4692
G1 X117.456 Y125.191 E29.69397
G1 X117.331 Y125.244 E29.71026
G1 X115.555 Y125.868 E29.93615
G1 X115.426 Y125.904 E29.95222
G1 X113.575 Y126.285 E30.179
G1 X113.441 Y126.304 E30.19524
G1 X111.565 Y126.431 E30.42088
G1 X111.429 Y126.431 E30.4372
G1 X109.555 Y126.304 E30.66259
G1 X109.405 Y126.282 E30.68078
G1 X107.105 Y125.768 E30.96359
G1 X106.961 Y125.724 E30.98166
G1 X105.21 Y125.043 E31.20711
G1 X105.086 Y124.985 E31.22354
G1 X103.443 Y124.071 E31.44915
G1 X103.33 Y123.998 E31.4653
G1 X101.826 Y122.874 E31.69061
G1 X101.724 Y122.786 E31.70678
G1 X100.379 Y121.463 E31.93317
G1 X100.289 Y121.362 E31.9494
G1 X99.143 Y119.881 E32.17412
G1 X99.068 Y119.769 E32.19029
G1 X98.122 Y118.132 E32.41718
G1 X98.062 Y118.01 E32.43349
G1 X97.351 Y116.271 E32.65894
G1 X97.309 Y116.144 E32.67499
G1 X96.838 Y114.324 E32.90058
G1 X96.813 Y114.191 E32.91682
G1 X96.591 Y112.32 E33.14292
G1 X96.585 Y112.169 E33.16105
G1 X96.663 Y109.828 E33.44213
G1 X96.679 Y109.676 E33.46047
G1 X97.026 Y107.828 E33.68611
G1 X97.06 Y107.698 E33.70223
G1 X97.654 Y105.91 E33.92832
G1 X97.705 Y105.785 E33.94452
G1 X98.536 Y104.091 E34.17094
G1 X98.604 Y103.974 E34.18718
G1 X99.648 Y102.418 E34.41204
G1 X99.731 Y102.311 E34.42829
G1 X100.982 Y100.904 E34.65421
G0 F3600 X101.281 Y101.169
G1 F1800 X101.338 Y101.113 E34.6638
G1 X102.767 Y99.884 E34.88998
G1 X102.841 Y99.83 E34.90097
G1 X104.831 Y98.59 E35.18234
G1 X104.902 Y98.552 E35.192
G1 X106.193 Y97.972 E35.36184
G1 X106.259 Y97.947 E35.37031
G1 X108.059 Y97.381 E35.59673
G1 X108.149 Y97.36 E35.60782
G1 X110.464 Y97.007 E35.88883
G1 X110.554 Y97 E35.89967
G1 X112.441 Y96.999 E36.12611
G1 X112.502 Y97.002 E36.13344
G1 X113.44 Y97.098 E36.24658
G1 X113.5 Y97.107 E36.25386
G1 X115.347 Y97.487 E36.48015
G1 X115.425 Y97.509 E36.48987
G1 X117.195 Y98.131 E36.715
G1 X117.269 Y98.163 E36.72468
G1 X118.938 Y99.017 E36.94966
G1 X119.008 Y99.058 E36.95939
G1 X120.552 Y100.132 E37.18509
G1 X120.615 Y100.183 E37.19481
G1 X122.002 Y101.455 E37.42065
G1 X122.051 Y101.506 E37.42913
G1 X122.971 Y102.579 E37.59874
G1 X123.014 Y102.636 E37.60731
G1 X124.062 Y104.197 E37.83293
G1 X124.103 Y104.267 E37.84267
G1 X124.934 Y105.961 E38.06909
G1 X124.964 Y106.036 E38.07878
G1 X125.557 Y107.822 E38.30461
G1 X125.578 Y107.9 E38.3143
G1 X125.925 Y109.744 E38.53946
G1 X125.935 Y109.835 E38.55045
G1 X126.014 Y112.184 E38.83249
G1 X126.009 Y112.285 E38.84462
G1 X125.692 Y114.619 E39.12728
G1 X125.672 Y114.708 E39.13822
G1 X125.139 Y116.511 E39.36384
G1 X125.111 Y116.587 E39.37356
G1 X124.343 Y118.297 E39.5985
G1 X124.305 Y118.368 E39.60817
G1 X123.312 Y119.963 E39.83363
G1 X123.265 Y120.029 E39.84335
G1 X122.064 Y121.479 E40.06929
G1 X122.008 Y121.538 E40.07905
G1 X120.622 Y122.811 E40.30487
G1 X120.559 Y122.861 E40.31453
G1 X119.01 Y123.939 E40.54099
G1 X118.941 Y123.981 E40.55068
G1 X117.274 Y124.835 E40.77544
G1 X117.199 Y124.867 E40.78523
G1 X115.423 Y125.491 E41.01112
G1 X115.345 Y125.513 E41.02085
G1 X113.494 Y125.894 E41.24762
G1 X113.414 Y125.905 E41.25731
G1 X111.538 Y126.032 E41.48295
G1 X111.456 Y126.032 E41.49279
G1 X109.582 Y125.905 E41.71818
G1 X109.492 Y125.892 E41.7291
G1 X107.192 Y125.378 E42.0119
G1 X107.106 Y125.351 E42.02272
G1 X105.355 Y124.67 E42.24817
G1 X105.28 Y124.635 E42.2581
G1 X103.637 Y123.721 E42.48372
G1 X103.57 Y123.678 E42.49327
G1 X102.066 Y122.554 E42.71858
G1 X102.004 Y122.501 E42.72837
G1 X100.659 Y121.178 E42.95477
G1 X100.605 Y121.117 E42.96454
G1 X99.459 Y119.636 E43.18926
G1 X99.415 Y119.569 E43.19888
G1 X98.469 Y117.932 E43.42576
G1 X98.433 Y117.859 E43.43553
G1 X97.722 Y116.12 E43.66097
G1 X97.696 Y116.043 E43.67073
G1 X97.225 Y114.223 E43.89632
G1 X97.21 Y114.144 E43.90597
G1 X96.988 Y112.273 E44.13207
G1 X96.984 Y112.182 E44.143
G1 X97.062 Y109.841 E44.42407
G1 X97.072 Y109.75 E44.43506
G1 X97.419 Y107.902 E44.66069
G1 X97.44 Y107.824 E44.67039
G1 X98.034 Y106.036 E44.89648
G1 X98.064 Y105.961 E44.90617
G1 X98.895 Y104.267 E45.13259
G1 X98.936 Y104.197 E45.14233
G1 X99.98 Y102.641 E45.36718
G1 X100.03 Y102.576 E45.37702
G1 X101.281 Y101.169 E45.60295
G0 F3600 X101.58 Y101.435
G1 F1800 X101.599 Y101.416 E45.60617
G1 X103.028 Y100.187 E45.83235
G1 X103.052 Y100.169 E45.83595
G1 X105.042 Y98.929 E46.11732
G1 X105.066 Y98.917 E46.12054
G1 X106.357 Y98.337 E46.29037
G1 X106.379 Y98.328 E46.29322
G1 X108.179 Y97.762 E46.51965
G1 X108.209 Y97.755 E46.52335
G1 X110.524 Y97.402 E46.80436
G1 X110.554 Y97.4 E46.80797
G1 X112.441 Y97.399 E47.03441
G1 X112.461 Y97.4 E47.03681
G1 X113.399 Y97.496 E47.14996
G1 X113.419 Y97.499 E47.15238
G1 X115.266 Y97.879 E47.37867
G1 X115.292 Y97.886 E47.3819
G1 X117.062 Y98.508 E47.60703
G1 X117.087 Y98.519 E47.61031
G1 X118.756 Y99.373 E47.83528
G1 X118.779 Y99.387 E47.83852
G1 X120.323 Y100.461 E48.06421
G1 X120.344 Y100.478 E48.06745
G1 X121.731 Y101.75 E48.29329
G1 X121.748 Y101.767 E48.29617
G1 X122.668 Y102.84 E48.46578
G1 X122.682 Y102.859 E48.46861
G1 X123.73 Y104.42 E48.69423
G1 X123.744 Y104.443 E48.69747
G1 X124.575 Y106.137 E48.92389
G1 X124.585 Y106.162 E48.92712
G1 X125.178 Y107.948 E49.15294
G1 X125.185 Y107.974 E49.15617
G1 X125.532 Y109.818 E49.38134
G1 X125.535 Y109.848 E49.38496
G1 X125.614 Y112.197 E49.667
G1 X125.612 Y112.231 E49.67108
G1 X125.295 Y114.565 E49.95373
G1 X125.289 Y114.595 E49.95741
G1 X124.756 Y116.398 E50.18302
G1 X124.746 Y116.423 E50.18625
G1 X123.978 Y118.133 E50.4112
G1 X123.966 Y118.157 E50.41442
G1 X122.973 Y119.752 E50.63988
G1 X122.957 Y119.774 E50.64314
G1 X121.756 Y121.224 E50.86908
G1 X121.737 Y121.243 E50.8723
G1 X120.351 Y122.516 E51.09813
G1 X120.33 Y122.533 E51.10137
G1 X118.781 Y123.611 E51.32784
G1 X118.758 Y123.625 E51.33107
G1 X117.091 Y124.479 E51.55583
G1 X117.066 Y124.49 E51.55911
G1 X115.29 Y125.114 E51.785
G1 X115.264 Y125.121 E51.78823
G1 X113.413 Y125.502 E52.01501
G1 X113.387 Y125.506 E52.01816
G1 X111.511 Y125.633 E52.2438
G1 X111.483 Y125.633 E52.24716
G1 X109.609 Y125.506 E52.47255
G1 X109.579 Y125.501 E52.4762
G1 X107.279 Y124.987 E52.75901
G1 X107.251 Y124.978 E52.76254
G1 X105.5 Y124.297 E52.98799
G1 X105.475 Y124.286 E52.99127
G1 X103.832 Y123.372 E53.21688
G1 X103.809 Y123.357 E53.22018
G1 X102.305 Y122.233 E53.44549
G1 X102.285 Y122.216 E53.44864
G1 X100.94 Y120.893 E53.67504
G1 X100.922 Y120.872 E53.67836
G1 X99.776 Y119.391 E53.90307
G1 X99.761 Y119.369 E53.90626
G1 X98.815 Y117.732 E54.13315
G1 X98.803 Y117.708 E54.13637
G1 X98.092 Y115.969 E54.36181
G1 X98.083 Y115.943 E54.36512
G1 X97.612 Y114.123 E54.59071
G1 X97.607 Y114.097 E54.59389
G1 X97.385 Y112.226 E54.81998
G1 X97.384 Y112.195 E54.82371
G1 X97.462 Y109.854 E55.10478
G1 X97.465 Y109.824 E55.1084
G1 X97.812 Y107.976 E55.33403
G1 X97.819 Y107.95 E55.33727
G1 X98.413 Y106.162 E55.56336
G1 X98.423 Y106.137 E55.56659
G1 X99.254 Y104.443 E55.79301
G1 X99.268 Y104.42 E55.79624
G1 X100.312 Y102.864 E56.02109
G1 X100.329 Y102.842 E56.02443
G1 X101.58 Y101.435 E56.25036
G10
G0 F3600 X101.267 Y101.09
G0 X101.304 Y101.101
G0 X101.347 Y101.112
G0 X105.308 Y102.221
G0 X105.351 Y102.232
G0 X105.702 Y102.332
;TYPE:SUPPORT
G11
G1 F1800 X105.921 Y102.197 E56.28123
G1 X106.351 Y101.953 E56.34056
G1 X106.609 Y101.817 E56.37556
G1 X106.985 Y101.634 E56.42574
G1 X107.266 Y101.511 E56.46255
G1 X107.68 Y101.345 E56.51607
G1 X108.079 Y101.204 E56.56685
G1 X108.452 Y101.087 E56.61376
G1 X108.826 Y100.985 E56.66028
G1 X109.248 Y100.886 E56.7123
G1 X109.571 Y100.822 E56.75181
G1 X109.997 Y100.756 E56.80354
G1 X110.44 Y100.703 E56.85708
G1 X110.808 Y100.674 E56.90138
G1 X111.229 Y100.655 E56.95195
G1 X111.595 Y100.65 E56.99587
G1 X112.362 Y100.686 E57.08801
G1 X112.814 Y100.73 E57.14251
G1 X113.172 Y100.78 E57.18589
G1 X113.553 Y100.848 E57.23233
G1 X113.911 Y100.923 E57.27622
G1 X114.434 Y101.055 E57.34095
G1 X115.114 Y101.27 E57.42653
G1 X115.489 Y101.409 E57.47452
G1 X116.02 Y101.64 E57.54401
G1 X116.589 Y101.92 E57.62011
G1 X116.954 Y102.123 E57.67023
G1 X117.296 Y102.331 E57.71826
G1 X113.766 Y103.277 E58.15681
G1 X113.646 Y103.228 E58.17236
G1 X113.427 Y102.87 E58.22273
G1 X113.122 Y102.54 E58.27665
G1 X111.608 Y101.374 E58.50596
G1 X111.068 Y101.39 E58.57079
G1 X109.511 Y102.744 E58.8184
G1 X109.23 Y103.193 E58.88196
G1 X109.103 Y103.242 E58.89829
G1 X105.702 Y102.332 E59.32077
G0 F3600 X106.64 Y102.417
G1 F1800 X106.64 Y101.982 E59.37297
G0 F3600 X108.284 Y101.308
G1 F1800 X110.918 Y101.308 E59.68905
G0 F3600 X111.784 Y101.308
G1 F1800 X114.703 Y101.308 E60.03933
G0 F3600 X114.638 Y101.288
G1 F1800 X114.638 Y102.878 E60.23013
G0 F3600 X111.972 Y101.452
G1 F1800 X111.972 Y100.828 E60.30501
G0 F3600 X109.306 Y101.038
G1 F1800 X109.306 Y102.769 E60.51273
G0 F3600 X102.821 Y115.515
G1 F1800 X102.915 Y115.575 E60.52611
G1 X103.04 Y115.83 E60.56019
