;FLAVOR:UltiGCode
;TIME:1499
;MATERIAL:2669
;MATERIAL2:0
;NOZZLE_DIAMETER:0.4
;Generated with Cura_SteamEngine 2.5.0

;LAYER_COUNT:132
;LAYER:0
M107
G0 F3600 X99.149 Y99.136 Z0.3
;TYPE:SKIRT
G1 F2400 X100.675 Y97.78 E0.24497
G1 X101.127 Y97.433 E0.31335
G1 X102.634 Y96.437 E0.53012
G1 X103.122 Y96.161 E0.5974
G1 X104.883 Y95.324 E0.83137
G1 X105.368 Y95.132 E0.89397
G1 X106.878 Y94.643 E1.08443
G1 X107.329 Y94.525 E1.14037
G1 X108.876 Y94.217 E1.32966
G1 X109.372 Y94.15 E1.38972
G1 X111.12 Y94.025 E1.60001
G1 X111.675 Y94.024 E1.66661
G1 X113.673 Y94.159 E1.90692
G1 X114.227 Y94.236 E1.97404
G1 X115.96 Y94.601 E2.18656
G1 X116.49 Y94.751 E2.25266
G1 X118.325 Y95.411 E2.48667
G1 X118.852 Y95.645 E2.55586
G1 X120.563 Y96.557 E2.78853
G1 X121.035 Y96.852 E2.85532
G1 X122.52 Y97.932 E3.07566
G1 X122.967 Y98.311 E3.14599
G1 X124.437 Y99.752 E3.39301
G1 X124.821 Y100.187 E3.46264
G1 X125.963 Y101.689 E3.68906
G1 X126.285 Y102.185 E3.76002
G1 X127.299 Y104.032 E4.01287
G1 X127.513 Y104.487 E4.0732
G1 X127.989 Y105.692 E4.22868
G1 X128.127 Y106.106 E4.28104
G1 X128.55 Y107.651 E4.47327
G1 X128.654 Y108.156 E4.53514
G1 X128.916 Y110.039 E4.76327
G1 X128.954 Y110.59 E4.82955
G1 X128.954 Y112.42 E5.04915
G1 X128.915 Y112.978 E5.11628
G1 X128.644 Y114.9 E5.3492
G1 X128.521 Y115.468 E5.41894
G1 X127.966 Y117.359 E5.65543
G1 X127.757 Y117.916 E5.72682
G1 X126.898 Y119.768 E5.9718
G1 X126.692 Y120.155 E6.02441
G1 X126.244 Y120.896 E6.12832
G1 X126.017 Y121.231 E6.17688
G1 X124.872 Y122.753 E6.40543
G1 X124.481 Y123.199 E6.4766
G1 X122.988 Y124.668 E6.72795
G1 X122.552 Y125.04 E6.79672
G1 X121.118 Y126.094 E7.01028
G1 X120.637 Y126.397 E7.0785
G1 X118.82 Y127.37 E7.32584
G1 X118.363 Y127.579 E7.38614
G1 X117.139 Y128.048 E7.54343
G1 X116.747 Y128.176 E7.59292
G1 X115.308 Y128.563 E7.77173
G1 X114.864 Y128.656 E7.82617
G1 X113.374 Y128.88 E8.00698
G1 X112.857 Y128.923 E8.06923
G1 X110.811 Y128.963 E8.3148
G1 X110.241 Y128.934 E8.38329
G1 X108.491 Y128.717 E8.5949
G1 X107.963 Y128.615 E8.65943
G1 X106.12 Y128.129 E8.88815
G1 X105.65 Y127.973 E8.94757
G1 X104.345 Y127.449 E9.11633
G1 X103.891 Y127.233 E9.17666
G1 X102.152 Y126.266 E9.41543
G1 X101.652 Y125.937 E9.48726
G1 X100.026 Y124.682 E9.73373
G1 X99.587 Y124.288 E9.80452
G1 X98.269 Y122.918 E10.03265
G1 X97.957 Y122.552 E10.09036
G1 X97.129 Y121.453 E10.25548
G1 X96.859 Y121.045 E10.31419
G1 X95.909 Y119.398 E10.54235
G1 X95.657 Y118.877 E10.6118
G1 X94.908 Y116.993 E10.85509
G1 X94.755 Y116.526 E10.91406
G1 X94.439 Y115.316 E11.06413
G1 X94.341 Y114.807 E11.12633
G1 X94.058 Y112.572 E11.39668
G1 X94.027 Y111.967 E11.46937
G1 X94.074 Y110.148 E11.68772
G1 X94.123 Y109.619 E11.75148
G1 X94.406 Y107.849 E11.96657
G1 X94.514 Y107.368 E12.02573
G1 X94.931 Y105.929 E12.20551
G1 X95.101 Y105.456 E12.26583
G1 X95.86 Y103.699 E12.4955
G1 X96.134 Y103.174 E12.56657
G1 X97.217 Y101.431 E12.81281
G1 X97.554 Y100.967 E12.88163
G1 X98.745 Y99.551 E13.10366
G1 X99.149 Y99.136 E13.17316
G0 F3600 X99.415 Y99.435
G1 F2400 X100.941 Y98.079 E13.41813
G1 X101.347 Y97.767 E13.47958
G1 X102.854 Y96.771 E13.69634
G1 X103.294 Y96.523 E13.75695
G1 X105.055 Y95.686 E13.99093
G1 X105.491 Y95.512 E14.04726
G1 X107.001 Y95.023 E14.23773
G1 X107.407 Y94.917 E14.28808
G1 X108.954 Y94.609 E14.47736
G1 X109.4 Y94.549 E14.53137
G1 X111.148 Y94.424 E14.74166
G1 X111.648 Y94.423 E14.80166
G1 X113.646 Y94.558 E15.04197
G1 X114.145 Y94.627 E15.10242
G1 X115.878 Y94.992 E15.31494
G1 X116.354 Y95.127 E15.37431
G1 X118.189 Y95.787 E15.60832
G1 X118.664 Y95.998 E15.67069
G1 X120.375 Y96.91 E15.90336
G1 X120.799 Y97.176 E15.96342
G1 X122.284 Y98.256 E16.18377
G1 X122.687 Y98.596 E16.24704
G1 X124.157 Y100.037 E16.49406
G1 X124.503 Y100.429 E16.5568
G1 X125.645 Y101.931 E16.78322
G1 X125.935 Y102.378 E16.84716
G1 X126.949 Y104.225 E17.10001
G1 X127.141 Y104.634 E17.15422
G1 X127.617 Y105.839 E17.3097
G1 X127.741 Y106.211 E17.35675
G1 X128.164 Y107.756 E17.54898
G1 X128.258 Y108.211 E17.60473
G1 X128.52 Y110.094 E17.83287
G1 X128.554 Y110.59 E17.89252
G1 X128.554 Y112.42 E18.11212
G1 X128.519 Y112.923 E18.17263
G1 X128.248 Y114.845 E18.40555
G1 X128.137 Y115.356 E18.4683
G1 X127.582 Y117.247 E18.70479
G1 X127.394 Y117.748 E18.76901
G1 X126.535 Y119.6 E19.01399
G1 X126.35 Y119.948 E19.06128
G1 X125.902 Y120.689 E19.16519
G1 X125.698 Y120.99 E19.20883
G1 X124.553 Y122.512 E19.43738
G1 X124.201 Y122.914 E19.5015
G1 X122.708 Y124.383 E19.75284
G1 X122.315 Y124.718 E19.81481
G1 X120.881 Y125.772 E20.02837
G1 X120.448 Y126.045 E20.0898
G1 X118.631 Y127.018 E20.33713
G1 X118.22 Y127.206 E20.39136
G1 X116.996 Y127.675 E20.54866
G1 X116.643 Y127.789 E20.59317
G1 X115.204 Y128.176 E20.77199
G1 X114.804 Y128.26 E20.82103
G1 X113.314 Y128.484 E21.00184
G1 X112.849 Y128.523 E21.05784
G1 X110.803 Y128.563 E21.30341
G1 X110.29 Y128.537 E21.36505
G1 X108.54 Y128.32 E21.57665
G1 X108.065 Y128.228 E21.63471
G1 X106.222 Y127.742 E21.86343
G1 X105.799 Y127.602 E21.9169
G1 X104.494 Y127.078 E22.08565
G1 X104.085 Y126.883 E22.14003
G1 X102.346 Y125.916 E22.3788
G1 X101.896 Y125.62 E22.44344
G1 X100.27 Y124.365 E22.68991
G1 X99.876 Y124.011 E22.75348
G1 X98.558 Y122.641 E22.9816
G1 X98.277 Y122.311 E23.03361
G1 X97.449 Y121.212 E23.19873
G1 X97.206 Y120.845 E23.25155
G1 X96.256 Y119.198 E23.47971
G1 X96.029 Y118.729 E23.54224
G1 X95.28 Y116.845 E23.78553
G1 X95.142 Y116.425 E23.83858
G1 X94.826 Y115.215 E23.98865
G1 X94.738 Y114.757 E24.04462
G1 X94.455 Y112.522 E24.31496
G1 X94.427 Y111.977 E24.38044
G1 X94.474 Y110.158 E24.5988
G1 X94.518 Y109.683 E24.65604
G1 X94.801 Y107.913 E24.87114
G1 X94.898 Y107.479 E24.9245
G1 X95.315 Y106.04 E25.10429
G1 X95.468 Y105.614 E25.15861
G1 X96.227 Y103.857 E25.38828
G1 X96.474 Y103.385 E25.4522
G1 X97.557 Y101.642 E25.69845
G1 X97.86 Y101.225 E25.76031
G1 X99.051 Y99.809 E25.98234
G1 X99.415 Y99.435 E26.04497
G0 F3600 X99.68 Y99.734
G1 F2400 X101.206 Y98.378 E26.28994
G1 X101.568 Y98.1 E26.34471
G1 X103.075 Y97.104 E26.56148
G1 X103.465 Y96.884 E26.61521
G1 X105.226 Y96.047 E26.84918
G1 X105.614 Y95.893 E26.89928
G1 X107.124 Y95.404 E27.08974
G1 X107.485 Y95.31 E27.13451
G1 X109.032 Y95.002 E27.32379
G1 X109.429 Y94.948 E27.37187
G1 X111.177 Y94.823 E27.58216
G1 X111.621 Y94.822 E27.63544
G1 X113.619 Y94.957 E27.87575
G1 X114.063 Y95.019 E27.92955
G1 X115.796 Y95.384 E28.14207
G1 X116.219 Y95.504 E28.19483
G1 X118.054 Y96.164 E28.42884
G1 X118.476 Y96.351 E28.48423
G1 X120.187 Y97.263 E28.7169
G1 X120.564 Y97.499 E28.77027
G1 X122.049 Y98.579 E28.99062
G1 X122.407 Y98.882 E29.0469
G1 X123.877 Y100.323 E29.29392
G1 X124.184 Y100.671 E29.3496
G1 X125.326 Y102.173 E29.57602
G1 X125.584 Y102.57 E29.63284
G1 X126.598 Y104.417 E29.88569
G1 X126.769 Y104.781 E29.93395
G1 X127.245 Y105.986 E30.08942
G1 X127.355 Y106.317 E30.13127
G1 X127.778 Y107.862 E30.3235
G1 X127.861 Y108.266 E30.37299
G1 X128.123 Y110.149 E30.60113
G1 X128.154 Y110.59 E30.65418
G1 X128.154 Y112.42 E30.87378
G1 X128.123 Y112.867 E30.92755
G1 X127.852 Y114.789 E31.16047
G1 X127.753 Y115.243 E31.21623
G1 X127.198 Y117.134 E31.45272
G1 X127.031 Y117.579 E31.50976
G1 X126.172 Y119.431 E31.75474
G1 X126.007 Y119.741 E31.79688
G1 X125.559 Y120.482 E31.90079
G1 X125.378 Y120.75 E31.93959
G1 X124.233 Y122.272 E32.16815
G1 X123.92 Y122.629 E32.22512
G1 X122.427 Y124.098 E32.47646
G1 X122.078 Y124.395 E32.53145
G1 X120.644 Y125.449 E32.74502
G1 X120.26 Y125.692 E32.79955
G1 X118.443 Y126.665 E33.04688
G1 X118.077 Y126.832 E33.09516
G1 X116.853 Y127.301 E33.25245
G1 X116.539 Y127.403 E33.29207
G1 X115.1 Y127.79 E33.47089
G1 X114.745 Y127.864 E33.5144
G1 X113.255 Y128.088 E33.69521
G1 X112.842 Y128.123 E33.74495
G1 X110.796 Y128.163 E33.99052
G1 X110.339 Y128.14 E34.04542
G1 X108.589 Y127.923 E34.25703
G1 X108.167 Y127.841 E34.30862
G1 X106.324 Y127.355 E34.53734
G1 X105.948 Y127.231 E34.58485
G1 X104.643 Y126.707 E34.7536
G1 X104.28 Y126.534 E34.80186
G1 X102.541 Y125.567 E35.04063
G1 X102.141 Y125.303 E35.09814
G1 X100.515 Y124.048 E35.34462
G1 X100.164 Y123.734 E35.40114
G1 X98.846 Y122.364 E35.62926
G1 X98.596 Y122.071 E35.67548
G1 X97.768 Y120.972 E35.8406
G1 X97.552 Y120.645 E35.88763
G1 X96.602 Y118.998 E36.11579
G1 X96.4 Y118.581 E36.17139
G1 X95.651 Y116.697 E36.41469
G1 X95.529 Y116.324 E36.46178
G1 X95.213 Y115.114 E36.61185
G1 X95.134 Y114.707 E36.6616
G1 X94.851 Y112.472 E36.93194
G1 X94.827 Y111.987 E36.99021
G1 X94.874 Y110.168 E37.20857
G1 X94.913 Y109.746 E37.25942
G1 X95.196 Y107.976 E37.47452
G1 X95.282 Y107.59 E37.52198
G1 X95.699 Y106.151 E37.70176
G1 X95.835 Y105.773 E37.74997
G1 X96.594 Y104.016 E37.97964
G1 X96.814 Y103.596 E38.03653
G1 X97.897 Y101.853 E38.28278
G1 X98.166 Y101.482 E38.33777
G1 X99.357 Y100.066 E38.5598
G1 X99.68 Y99.734 E38.61539
G10
G0 F3600 X101.482 Y101.49
G0 X102.115 Y102.106
G0 X102.213 Y102.12
G0 X102.143 Y102.049
;TYPE:WALL-OUTER
G11
G1 F2400 X102.494 Y101.715 E38.67353
G1 X102.845 Y101.402 E38.72997
G1 X103.214 Y101.098 E38.78734
G1 X103.599 Y100.803 E38.84554
G1 X103.981 Y100.53 E38.90188
G1 X104.38 Y100.267 E38.95923
G1 X104.794 Y100.016 E39.01733
G1 X105.205 Y99.785 E39.0739
G1 X105.636 Y99.563 E39.13208
G1 X106.062 Y99.364 E39.1885
G1 X106.5 Y99.177 E39.24565
G1 X106.953 Y99.002 E39.30393
G1 X107.404 Y98.847 E39.36115
G1 X107.854 Y98.71 E39.4176
G1 X108.317 Y98.588 E39.47506
G1 X108.789 Y98.48 E39.53316
G1 X109.25 Y98.392 E39.58948
G1 X109.722 Y98.321 E39.64676
G1 X110.204 Y98.263 E39.70502
G1 X110.673 Y98.227 E39.76146
G1 X111.157 Y98.205 E39.8196
G1 X111.628 Y98.201 E39.87612
G1 X112.103 Y98.215 E39.93315
G1 X112.587 Y98.246 E39.99135
G1 X113.061 Y98.292 E40.04849
G1 X113.529 Y98.356 E40.10518
G1 X113.999 Y98.438 E40.16243
G1 X114.474 Y98.538 E40.22068
G1 X114.936 Y98.652 E40.27778
G1 X115.388 Y98.781 E40.33419
G1 X115.842 Y98.93 E40.39153
G1 X116.297 Y99.096 E40.44965
G1 X116.733 Y99.273 E40.50611
G1 X117.169 Y99.469 E40.56348
G1 X117.597 Y99.681 E40.62079
G1 X118.017 Y99.908 E40.67808
G1 X118.435 Y100.153 E40.73622
G1 X118.833 Y100.405 E40.79275
G1 X119.226 Y100.675 E40.84997
G1 X119.616 Y100.964 E40.90822
G1 X119.983 Y101.258 E40.96465
G1 X120.345 Y101.568 E41.02184
G1 X120.696 Y101.893 E41.07924
G1 X121.034 Y102.229 E41.13643
G1 X121.361 Y102.577 E41.19374
G1 X121.681 Y102.942 E41.25199
G1 X121.976 Y103.307 E41.3083
G1 X122.263 Y103.689 E41.36564
G1 X122.537 Y104.081 E41.42303
G1 X122.8 Y104.487 E41.48108
G1 X123.044 Y104.898 E41.53844
G1 X123.271 Y105.31 E41.59488
G1 X123.486 Y105.736 E41.65215
G1 X123.684 Y106.17 E41.70939
G1 X123.871 Y106.618 E41.76764
G1 X124.036 Y107.059 E41.82415
G1 X124.189 Y107.518 E41.88221
G1 X124.322 Y107.97 E41.93875
G1 X124.443 Y108.439 E41.99687
G1 X124.543 Y108.899 E42.05336
G1 X124.628 Y109.368 E42.11055
G1 X124.695 Y109.841 E42.16788
G1 X124.746 Y110.315 E42.22509
G1 X124.78 Y110.792 E42.28248
G1 X124.797 Y111.269 E42.33975
G1 X124.797 Y111.746 E42.39699
G1 X124.779 Y112.23 E42.45511
G1 X124.745 Y112.699 E42.51154
G1 X124.693 Y113.174 E42.56888
G1 X124.625 Y113.646 E42.6261
G1 X124.538 Y114.123 E42.68429
G1 X124.438 Y114.583 E42.74078
G1 X124.318 Y115.044 E42.79794
G1 X124.181 Y115.509 E42.85611
G1 X124.031 Y115.955 E42.91258
G1 X123.863 Y116.402 E42.96988
G1 X123.678 Y116.844 E43.02738
G1 X123.476 Y117.284 E43.08548
G1 X123.264 Y117.703 E43.14183
G1 X123.033 Y118.12 E43.19903
G1 X122.788 Y118.531 E43.25645
G1 X122.529 Y118.931 E43.31364
G1 X122.254 Y119.323 E43.3711
G1 X121.962 Y119.709 E43.42918
G1 X121.667 Y120.074 E43.48549
G1 X121.347 Y120.439 E43.54374
G1 X121.024 Y120.782 E43.60028
G1 X120.685 Y121.117 E43.65747
G1 X120.329 Y121.446 E43.71564
G1 X119.971 Y121.752 E43.77216
G1 X119.598 Y122.049 E43.82937
G1 X119.208 Y122.337 E43.88755
G1 X118.821 Y122.603 E43.9439
G1 X118.417 Y122.859 E44.0013
G1 X117.998 Y123.103 E44.05948
G1 X117.577 Y123.329 E44.11682
G1 X117.156 Y123.536 E44.17312
G1 X116.713 Y123.735 E44.23139
G1 X116.278 Y123.912 E44.28775
G1 X115.829 Y124.075 E44.34507
G1 X115.368 Y124.225 E44.40324
G1 X114.915 Y124.354 E44.45976
G1 X114.452 Y124.467 E44.51696
G1 X113.977 Y124.566 E44.57518
G1 X113.508 Y124.647 E44.63229
G1 X113.039 Y124.71 E44.68908
G1 X112.566 Y124.756 E44.74611
G1 X112.082 Y124.786 E44.8043
G1 X111.607 Y124.799 E44.86132
G1 X111.135 Y124.795 E44.91796
G1 X110.651 Y124.772 E44.97611
G1 X110.183 Y124.735 E45.03244
G1 X109.701 Y124.676 E45.09071
G1 X109.228 Y124.604 E45.14813
G1 X108.767 Y124.516 E45.20445
G1 X108.295 Y124.407 E45.26258
G1 X107.834 Y124.284 E45.31983
G1 X107.378 Y124.144 E45.37707
G1 X106.933 Y123.99 E45.43358
G1 X106.48 Y123.815 E45.49186
G1 X106.042 Y123.627 E45.54905
G1 X105.616 Y123.427 E45.60553
G1 X105.186 Y123.205 E45.6636
G1 X104.771 Y122.97 E45.72083
G1 X104.362 Y122.721 E45.77829
G1 X103.963 Y122.458 E45.83563
G1 X103.575 Y122.18 E45.89291
G1 X103.203 Y121.893 E45.94929
G1 X102.83 Y121.584 E46.00742
G1 X102.478 Y121.27 E46.06402
G1 X102.127 Y120.935 E46.12225
G1 X101.795 Y120.594 E46.17936
G1 X101.48 Y120.245 E46.23577
G1 X101.168 Y119.873 E46.29403
G1 X100.875 Y119.497 E46.35124
G1 X100.594 Y119.11 E46.40863
G1 X100.327 Y118.714 E46.46594
G1 X100.08 Y118.316 E46.52215
G1 X99.839 Y117.894 E46.58047
G1 X99.617 Y117.471 E46.63779
G1 X99.41 Y117.041 E46.69506
G1 X99.222 Y116.61 E46.75149
G1 X99.043 Y116.159 E46.80971
G1 X98.885 Y115.71 E46.86683
G1 X98.742 Y115.253 E46.92429
G1 X98.615 Y114.793 E46.98156
G1 X98.506 Y114.328 E47.03887
G1 X98.411 Y113.859 E47.09629
G1 X98.335 Y113.389 E47.15343
G1 X98.276 Y112.915 E47.21075
G1 X98.234 Y112.447 E47.26713
G1 X98.209 Y111.963 E47.32529
G1 X98.2 Y111.493 E47.3817
G1 X98.21 Y111.016 E47.43895
G1 X98.236 Y110.532 E47.49711
G1 X98.278 Y110.063 E47.55362
G1 X98.338 Y109.589 E47.61095
G1 X98.415 Y109.119 E47.66811
G1 X98.511 Y108.65 E47.72555
G1 X98.621 Y108.185 E47.78289
G1 X98.748 Y107.726 E47.84004
G1 X98.892 Y107.271 E47.89731
G1 X99.054 Y106.814 E47.9555
G1 X99.23 Y106.37 E48.01281
G1 X99.419 Y105.939 E48.06928
G1 X99.627 Y105.509 E48.1266
G1 X99.848 Y105.088 E48.18366
G1 X100.087 Y104.673 E48.24113
G1 X100.339 Y104.268 E48.29837
G1 X100.606 Y103.872 E48.35568
G1 X100.892 Y103.48 E48.41391
G1 X101.182 Y103.11 E48.47032
G1 X101.494 Y102.739 E48.52849
G1 X101.81 Y102.391 E48.5849
G1 X102.143 Y102.049 E48.64218
G0 F3600 X102.288 Y101.911
G0 X102.512 Y101.946
;TYPE:SKIN
G1 F2400 X121.053 Y120.488 E51.78878
G1 X121.123 Y120.558
G0 F3600 X120.774 Y120.774
G1 F2400 X102.222 Y102.222 E54.93716
G1 X102.152 Y102.152
G0 F3600 X101.944 Y102.509
G1 F2400 X120.487 Y121.053 E58.08409
G1 X120.557 Y121.123
G0 F3600 X120.193 Y121.324
G1 F2400 X101.674 Y102.806 E61.22679
G1 X101.604 Y102.736
G0 F3600 X101.414 Y103.111
G1 F2400 X119.888 Y121.585 E64.36193
G1 X119.958 Y121.655
G0 F3600 X119.574 Y121.837
G1 F2400 X101.161 Y103.424 E67.48672
G1 X101.091 Y103.354
G0 F3600 X100.918 Y103.747
G1 F2400 X119.251 Y122.079 E70.59785
G1 X119.321 Y122.149
G0 F3600 X118.92 Y122.314
G1 F2400 X100.682 Y104.076 E73.69294
G1 X100.612 Y104.006
G0 F3600 X100.457 Y104.417
G1 F2400 X118.581 Y122.54 E76.7686
G1 X118.651 Y122.61
G0 F3600 X118.231 Y122.756
G1 F2400 X100.24 Y104.766 E79.82169
G1 X100.17 Y104.696
G0 F3600 X100.033 Y105.124
G1 F2400 X117.872 Y122.963 E82.84907
G1 X117.942 Y123.033
G0 F3600 X117.504 Y123.161
G1 F2400 X99.837 Y105.493 E85.84734
G1 X99.767 Y105.423
G0 F3600 X99.65 Y105.872
G1 F2400 X117.126 Y123.349 E88.8132
G1 X117.196 Y123.419
G0 F3600 X116.736 Y123.525
G1 F2400 X99.472 Y106.261 E91.743
G1 X99.402 Y106.191
G0 F3600 X99.307 Y106.661
G1 F2400 X116.338 Y123.692 E94.63325
G1 X116.408 Y123.762
G0 F3600 X115.927 Y123.846
