;FLAVOR:UltiGCode
;TIME:1689
;MATERIAL:2947
;MATERIAL2:0
;NOZZLE_DIAMETER:0.4
;Generated with Cura_SteamEngine 3.2.1
M82 ;absolute extrusion mode

;LAYER_COUNT:133
;LAYER:0
M107
G0 F3600 X100.022 Y98.992 Z0.3
;TYPE:SKIRT
G1 F2250 X100.474 Y98.593 E0.07235
G1 X102.082 Y97.376 E0.31434
G1 X102.57 Y97.059 E0.38417
G1 X104.11 Y96.213 E0.59502
G1 X104.606 Y95.983 E0.66063
G1 X106.268 Y95.347 E0.87418
G1 X106.694 Y95.211 E0.92784
G1 X107.805 Y94.923 E1.06556
G1 X108.16 Y94.848 E1.1091
G1 X109.322 Y94.657 E1.25042
G1 X109.821 Y94.607 E1.3106
G1 X111.906 Y94.529 E1.56097
G1 X112.516 Y94.552 E1.63422
G1 X114.366 Y94.766 E1.8577
G1 X114.915 Y94.869 E1.92473
G1 X116.646 Y95.32 E2.13939
G1 X117.173 Y95.498 E2.20614
G1 X118.854 Y96.197 E2.4246
G1 X119.373 Y96.458 E2.49431
G1 X121.02 Y97.444 E2.72466
G1 X121.512 Y97.792 E2.79698
G1 X123.09 Y99.095 E3.04255
G1 X123.524 Y99.512 E3.11478
G1 X124.753 Y100.886 E3.33599
G1 X125.086 Y101.313 E3.40097
G1 X126.012 Y102.683 E3.5994
G1 X126.288 Y103.159 E3.66543
G1 X127.126 Y104.864 E3.89341
G1 X127.363 Y105.465 E3.97093
G1 X128.044 Y107.705 E4.25188
G1 X128.175 Y108.288 E4.32358
G1 X128.393 Y109.776 E4.50405
G1 X128.434 Y110.293 E4.56628
G1 X128.464 Y112.184 E4.79323
G1 X128.432 Y112.759 E4.86234
G1 X128.199 Y114.564 E5.08074
G1 X128.102 Y115.063 E5.14174
G1 X127.718 Y116.533 E5.32406
G1 X127.563 Y117.005 E5.38367
G1 X126.942 Y118.561 E5.58471
G1 X126.702 Y119.06 E5.65116
G1 X125.754 Y120.722 E5.88076
G1 X125.421 Y121.215 E5.95215
G1 X124.207 Y122.756 E6.18756
G1 X123.803 Y123.197 E6.25933
G1 X122.383 Y124.53 E6.49305
G1 X121.942 Y124.889 E6.56129
G1 X120.522 Y125.885 E6.76942
G1 X120.142 Y126.121 E6.8231
G1 X119.144 Y126.666 E6.95956
G1 X118.744 Y126.856 E7.0127
G1 X117.102 Y127.529 E7.22565
G1 X116.601 Y127.697 E7.28906
G1 X115.009 Y128.115 E7.48657
G1 X114.502 Y128.214 E7.54856
G1 X112.841 Y128.427 E7.74951
G1 X112.33 Y128.459 E7.81095
G1 X110.648 Y128.458 E8.01279
G1 X110.01 Y128.406 E8.08961
G1 X107.581 Y128.012 E8.3849
G1 X107.084 Y127.899 E8.44606
G1 X106.227 Y127.645 E8.55332
G1 X105.87 Y127.521 E8.59867
G1 X104.469 Y126.957 E8.7799
G1 X104.026 Y126.746 E8.83878
G1 X102.534 Y125.92 E9.04343
G1 X102.063 Y125.614 E9.11083
G1 X100.551 Y124.474 E9.33806
G1 X100.106 Y124.084 E9.40907
G1 X98.721 Y122.675 E9.64616
G1 X98.332 Y122.214 E9.71854
G1 X97.178 Y120.617 E9.95498
G1 X96.883 Y120.142 E10.02208
G1 X96.113 Y118.684 E10.21994
G1 X95.915 Y118.248 E10.2774
G1 X95.412 Y116.936 E10.44601
G1 X95.256 Y116.432 E10.50932
G1 X94.778 Y114.428 E10.75655
G1 X94.684 Y113.844 E10.82753
G1 X94.531 Y112.074 E11.04072
G1 X94.523 Y111.499 E11.10973
G1 X94.636 Y109.548 E11.34424
G1 X94.709 Y108.981 E11.41284
G1 X95.06 Y107.256 E11.62409
G1 X95.22 Y106.69 E11.69467
G1 X95.924 Y104.749 E11.94243
G1 X96.156 Y104.227 E12.01098
G1 X96.93 Y102.779 E12.20801
G1 X97.215 Y102.323 E12.27254
G1 X98.297 Y100.825 E12.49428
G1 X98.674 Y100.377 E12.56455
G1 X100.022 Y98.992 E12.79647
G0 F3600 X100.308 Y99.271
G1 F2250 X100.715 Y98.911 E12.86168
G1 X102.323 Y97.694 E13.10367
G1 X102.763 Y97.41 E13.16651
G1 X104.303 Y96.564 E13.37736
G1 X104.749 Y96.357 E13.43637
G1 X106.411 Y95.721 E13.64991
G1 X106.795 Y95.598 E13.6983
G1 X107.906 Y95.31 E13.83602
G1 X108.225 Y95.243 E13.87514
G1 X109.387 Y95.052 E14.01645
G1 X109.836 Y95.007 E14.0706
G1 X111.921 Y94.929 E14.32097
G1 X112.47 Y94.95 E14.3869
G1 X114.32 Y95.164 E14.61038
G1 X114.814 Y95.256 E14.67068
G1 X116.545 Y95.707 E14.88534
G1 X117.019 Y95.867 E14.94537
G1 X118.7 Y96.566 E15.16383
G1 X119.167 Y96.801 E15.22657
G1 X120.814 Y97.787 E15.45692
G1 X121.257 Y98.1 E15.52201
G1 X122.835 Y99.403 E15.76758
G1 X123.226 Y99.779 E15.83268
G1 X124.455 Y101.153 E16.05389
G1 X124.755 Y101.537 E16.11237
G1 X125.681 Y102.907 E16.3108
G1 X125.929 Y103.335 E16.37016
G1 X126.767 Y105.04 E16.59813
G1 X126.98 Y105.581 E16.6679
G1 X127.661 Y107.821 E16.94885
G1 X127.779 Y108.346 E17.01342
G1 X127.997 Y109.834 E17.19389
G1 X128.035 Y110.299 E17.24988
G1 X128.065 Y112.19 E17.47682
G1 X128.035 Y112.708 E17.53909
G1 X127.802 Y114.513 E17.75749
G1 X127.715 Y114.962 E17.81237
G1 X127.331 Y116.432 E17.99469
G1 X127.192 Y116.856 E18.04823
G1 X126.571 Y118.412 E18.24927
G1 X126.354 Y118.862 E18.30922
G1 X125.406 Y120.524 E18.53883
G1 X125.107 Y120.968 E18.60306
G1 X123.893 Y122.509 E18.83847
G1 X123.529 Y122.906 E18.90311
G1 X122.109 Y124.239 E19.13682
G1 X121.712 Y124.561 E19.19816
G1 X120.292 Y125.557 E19.4063
G1 X119.95 Y125.77 E19.45465
G1 X118.952 Y126.315 E19.5911
G1 X118.592 Y126.486 E19.63893
G1 X116.95 Y127.159 E19.85188
G1 X116.499 Y127.31 E19.90895
G1 X114.907 Y127.728 E20.10646
G1 X114.451 Y127.817 E20.16222
G1 X112.79 Y128.03 E20.36317
G1 X112.33 Y128.059 E20.41848
G1 X110.648 Y128.058 E20.62032
G1 X110.074 Y128.012 E20.68942
G1 X107.645 Y127.618 E20.98471
G1 X107.198 Y127.516 E21.03973
G1 X106.341 Y127.262 E21.14699
G1 X106.02 Y127.15 E21.18779
G1 X104.619 Y126.586 E21.36902
G1 X104.219 Y126.396 E21.42216
G1 X102.727 Y125.57 E21.6268
G1 X102.304 Y125.295 E21.68735
G1 X100.792 Y124.155 E21.91458
G1 X100.392 Y123.804 E21.97844
G1 X99.007 Y122.395 E22.21553
G1 X98.656 Y121.979 E22.28084
G1 X97.502 Y120.382 E22.51728
G1 X97.237 Y119.955 E22.57759
G1 X96.467 Y118.497 E22.77545
G1 X96.289 Y118.105 E22.82711
G1 X95.786 Y116.793 E22.99572
G1 X95.645 Y116.339 E23.05277
G1 X95.167 Y114.335 E23.3
G1 X95.082 Y113.81 E23.36382
G1 X94.929 Y112.04 E23.57701
G1 X94.922 Y111.522 E23.63918
G1 X95.035 Y109.571 E23.87369
G1 X95.101 Y109.061 E23.9354
G1 X95.452 Y107.336 E24.14664
G1 X95.596 Y106.827 E24.21012
G1 X96.3 Y104.886 E24.45788
G1 X96.509 Y104.416 E24.51961
G1 X97.283 Y102.968 E24.71663
G1 X97.54 Y102.557 E24.7748
G1 X98.622 Y101.059 E24.99655
G1 X98.96 Y100.656 E25.05967
G1 X100.308 Y99.271 E25.29159
G0 F3600 X100.595 Y99.55
G1 F2250 X100.957 Y99.23 E25.34957
G1 X102.565 Y98.013 E25.59157
G1 X102.955 Y97.76 E25.64735
G1 X104.495 Y96.914 E25.8582
G1 X104.892 Y96.73 E25.91071
G1 X106.554 Y96.094 E26.12425
G1 X106.895 Y95.985 E26.16721
G1 X108.006 Y95.697 E26.30494
G1 X108.29 Y95.637 E26.33977
G1 X109.452 Y95.446 E26.48108
G1 X109.851 Y95.406 E26.5292
G1 X111.936 Y95.328 E26.77958
G1 X112.424 Y95.347 E26.83818
G1 X114.274 Y95.561 E27.06166
G1 X114.713 Y95.643 E27.11525
G1 X116.444 Y96.094 E27.32991
G1 X116.866 Y96.236 E27.38334
G1 X118.547 Y96.935 E27.6018
G1 X118.962 Y97.144 E27.65756
G1 X120.609 Y98.13 E27.88791
G1 X121.002 Y98.408 E27.94568
G1 X122.58 Y99.711 E28.19125
G1 X122.928 Y100.046 E28.24921
G1 X124.157 Y101.42 E28.47043
G1 X124.423 Y101.761 E28.52233
G1 X125.349 Y103.131 E28.72076
G1 X125.57 Y103.511 E28.77351
G1 X126.408 Y105.216 E29.00149
G1 X126.598 Y105.697 E29.06355
G1 X127.279 Y107.937 E29.34449
G1 X127.383 Y108.404 E29.40191
G1 X127.601 Y109.892 E29.58237
G1 X127.635 Y110.305 E29.6321
G1 X127.665 Y112.196 E29.85905
G1 X127.639 Y112.657 E29.91446
G1 X127.406 Y114.462 E30.13285
G1 X127.328 Y114.861 E30.18164
G1 X126.944 Y116.331 E30.36396
G1 X126.82 Y116.708 E30.41158
G1 X126.199 Y118.264 E30.61262
G1 X126.007 Y118.663 E30.66576
G1 X125.059 Y120.325 E30.89536
G1 X124.793 Y120.72 E30.95251
G1 X123.579 Y122.261 E31.18792
G1 X123.255 Y122.614 E31.24542
G1 X121.835 Y123.947 E31.47913
G1 X121.483 Y124.234 E31.53363
G1 X120.063 Y125.23 E31.74177
G1 X119.759 Y125.419 E31.78473
G1 X118.761 Y125.964 E31.92118
G1 X118.441 Y126.116 E31.96369
G1 X116.799 Y126.789 E32.17664
G1 X116.398 Y126.923 E32.22738
G1 X114.806 Y127.341 E32.42489
G1 X114.4 Y127.42 E32.47453
G1 X112.739 Y127.633 E32.67548
G1 X112.33 Y127.659 E32.72466
G1 X110.648 Y127.658 E32.9265
G1 X110.138 Y127.617 E32.98789
G1 X107.709 Y127.223 E33.28318
G1 X107.312 Y127.132 E33.33206
G1 X106.455 Y126.878 E33.43932
G1 X106.169 Y126.778 E33.47568
G1 X104.768 Y126.214 E33.65691
G1 X104.413 Y126.046 E33.70404
G1 X102.921 Y125.22 E33.90869
G1 X102.545 Y124.975 E33.96254
G1 X101.033 Y123.835 E34.18977
G1 X100.677 Y123.523 E34.24658
G1 X99.292 Y122.114 E34.48366
G1 X98.98 Y121.745 E34.54165
G1 X97.826 Y120.148 E34.77809
G1 X97.59 Y119.768 E34.83177
G1 X96.82 Y118.31 E35.02963
G1 X96.662 Y117.962 E35.07549
G1 X96.159 Y116.65 E35.2441
G1 X96.034 Y116.246 E35.29485
G1 X95.556 Y114.242 E35.54208
G1 X95.481 Y113.776 E35.59872
G1 X95.328 Y112.006 E35.81191
G1 X95.321 Y111.545 E35.86724
G1 X95.434 Y109.594 E36.10175
G1 X95.493 Y109.141 E36.15657
G1 X95.844 Y107.416 E36.36781
G1 X95.972 Y106.963 E36.4243
G1 X96.676 Y105.022 E36.67206
G1 X96.862 Y104.604 E36.72697
G1 X97.636 Y103.156 E36.92399
G1 X97.864 Y102.791 E36.97564
G1 X98.946 Y101.293 E37.19738
G1 X99.247 Y100.935 E37.25351
G1 X100.595 Y99.55 E37.48543
G10
G0 F3600 X102.307 Y101.39
G0 X103.156 Y102.354
G0 X119.121 Y121.155
G0 X119.182 Y121.233
;TYPE:WALL-INNER
G11
G1 F2250 X118.813 Y121.513 E37.54102
G1 X118.459 Y121.762 E37.59296
G1 X118.066 Y122.017 E37.64917
G1 X117.7 Y122.238 E37.70048
G1 X117.296 Y122.462 E37.75591
G1 X116.909 Y122.657 E37.80791
G1 X116.483 Y122.854 E37.86424
G1 X116.092 Y123.019 E37.91516
G1 X115.659 Y123.181 E37.97064
G1 X115.23 Y123.325 E38.02494
G1 X114.814 Y123.449 E38.07703
G1 X114.378 Y123.562 E38.13108
G1 X113.934 Y123.658 E38.18559
G1 X113.501 Y123.738 E38.23843
G1 X113.063 Y123.8 E38.29152
G1 X112.604 Y123.85 E38.34692
G1 X112.164 Y123.881 E38.39985
G1 X111.702 Y123.898 E38.45533
G1 X111.276 Y123.898 E38.50645
G1 X110.812 Y123.881 E38.56217
G1 X110.383 Y123.849 E38.61379
G1 X109.917 Y123.797 E38.67006
G1 X109.48 Y123.734 E38.72304
G1 X109.046 Y123.654 E38.776
G1 X108.606 Y123.558 E38.83004
G1 X108.163 Y123.442 E38.88499
G1 X107.754 Y123.32 E38.93621
G1 X107.309 Y123.17 E38.99256
G1 X106.904 Y123.017 E39.04451
G1 X106.494 Y122.845 E39.09787
G1 X106.073 Y122.649 E39.15359
G1 X105.68 Y122.449 E39.20651
G1 X105.282 Y122.228 E39.26114
G1 X104.905 Y122 E39.31401
G1 X104.531 Y121.757 E39.36753
G1 X104.164 Y121.498 E39.42143
G1 X103.819 Y121.233 E39.47364
G1 X103.456 Y120.936 E39.52992
G1 X103.138 Y120.656 E39.58076
G1 X102.798 Y120.332 E39.63712
G1 X102.493 Y120.022 E39.68931
G1 X102.186 Y119.687 E39.74383
G1 X101.903 Y119.352 E39.79646
G1 X101.617 Y118.988 E39.85201
G1 X101.352 Y118.626 E39.90584
G1 X101.112 Y118.271 E39.95727
G1 X100.865 Y117.875 E40.01327
G1 X100.644 Y117.493 E40.06623
G1 X100.439 Y117.105 E40.11889
G1 X100.239 Y116.689 E40.17428
G1 X100.063 Y116.29 E40.22661
G1 X99.895 Y115.868 E40.28112
G1 X99.744 Y115.441 E40.33547
G1 X99.613 Y115.026 E40.38769
G1 X99.49 Y114.581 E40.44309
G1 X99.386 Y114.146 E40.49676
G1 X99.3 Y113.719 E40.54903
G1 X99.226 Y113.265 E40.60423
G1 X99.17 Y112.82 E40.65805
G1 X99.131 Y112.381 E40.71094
G1 X99.108 Y111.94 E40.76393
G1 X99.1 Y111.501 E40.81662
G1 X99.109 Y111.039 E40.87207
G1 X99.133 Y110.597 E40.92519
G1 X99.172 Y110.161 E40.97772
G1 X99.229 Y109.716 E41.03155
G1 X99.304 Y109.261 E41.08689
G1 X99.391 Y108.828 E41.13989
G1 X99.493 Y108.401 E41.19257
G1 X99.614 Y107.97 E41.24629
G1 X99.753 Y107.534 E41.3012
G1 X99.9 Y107.119 E41.35403
G1 X100.069 Y106.695 E41.40881
G1 X100.253 Y106.281 E41.46317
G1 X100.442 Y105.891 E41.51518
G1 X100.658 Y105.483 E41.57058
G1 X100.883 Y105.096 E41.6243
G1 X101.117 Y104.722 E41.67724
G1 X101.372 Y104.346 E41.73175
G1 X101.629 Y103.997 E41.78376
G1 X101.916 Y103.633 E41.83939
G1 X102.2 Y103.297 E41.89218
G1 X102.496 Y102.974 E41.94476
G1 X102.822 Y102.644 E42.00042
G1 X103.143 Y102.34 E42.05347
G1 X103.483 Y102.04 E42.10788
G1 X103.818 Y101.767 E42.15974
G1 X104.187 Y101.487 E42.21533
G1 X104.541 Y101.238 E42.26726
G1 X104.934 Y100.983 E42.32348
G1 X105.3 Y100.762 E42.37479
G1 X105.704 Y100.538 E42.43022
G1 X106.091 Y100.343 E42.48222
G1 X106.517 Y100.146 E42.53854
G1 X106.908 Y99.981 E42.58947
G1 X107.341 Y99.819 E42.64495
G1 X107.773 Y99.674 E42.69963
G1 X108.186 Y99.551 E42.75134
G1 X108.622 Y99.438 E42.80539
G1 X109.066 Y99.342 E42.8599
G1 X109.499 Y99.262 E42.91274
G1 X109.937 Y99.2 E42.96582
G1 X110.396 Y99.15 E43.02123
G1 X110.836 Y99.119 E43.07416
G1 X111.298 Y99.102 E43.12964
G1 X111.724 Y99.102 E43.18076
G1 X112.188 Y99.119 E43.23648
G1 X112.617 Y99.151 E43.2881
G1 X113.083 Y99.203 E43.34437
G1 X113.52 Y99.266 E43.39735
G1 X113.954 Y99.346 E43.45031
G1 X114.394 Y99.442 E43.50435
G1 X114.837 Y99.558 E43.5593
G1 X115.246 Y99.68 E43.61052
G1 X115.691 Y99.83 E43.66687
G1 X116.096 Y99.983 E43.71882
G1 X116.502 Y100.153 E43.77164
G1 X116.921 Y100.348 E43.8271
G1 X117.32 Y100.551 E43.88082
G1 X117.718 Y100.772 E43.93545
G1 X118.095 Y101 E43.98832
G1 X118.465 Y101.241 E44.04131
G1 X118.836 Y101.502 E44.09574
G1 X119.181 Y101.767 E44.14794
G1 X119.544 Y102.064 E44.20422
G1 X119.862 Y102.344 E44.25507
G1 X120.197 Y102.663 E44.31058
G1 X120.507 Y102.978 E44.36361
G1 X120.814 Y103.313 E44.41814
G1 X121.097 Y103.648 E44.47077
G1 X121.379 Y104.007 E44.52555
G1 X121.636 Y104.357 E44.57765
G1 X121.896 Y104.74 E44.6332
G1 X122.134 Y105.124 E44.68742
G1 X122.356 Y105.507 E44.74054
G1 X122.561 Y105.895 E44.7932
G1 X122.753 Y106.294 E44.84633
G1 X122.934 Y106.703 E44.90001
G1 X123.105 Y107.132 E44.95542
G1 X123.25 Y107.54 E45.00738
G1 X123.386 Y107.967 E45.06116
G1 X123.508 Y108.412 E45.11653
G1 X123.61 Y108.834 E45.16863
G1 X123.7 Y109.28 E45.22323
G1 X123.771 Y109.714 E45.276
G1 X123.829 Y110.173 E45.33152
G1 X123.868 Y110.606 E45.38369
G1 X123.892 Y111.052 E45.43729
G1 X123.9 Y111.499 E45.49093
G1 X123.891 Y111.961 E45.54638
G1 X123.867 Y112.403 E45.5995
G1 X123.828 Y112.839 E45.65203
G1 X123.771 Y113.284 E45.70587
G1 X123.696 Y113.739 E45.76121
G1 X123.609 Y114.172 E45.8142
G1 X123.507 Y114.599 E45.86689
G1 X123.386 Y115.03 E45.9206
G1 X123.247 Y115.466 E45.97552
G1 X123.1 Y115.881 E46.02835
G1 X122.935 Y116.296 E46.08194
G1 X122.747 Y116.719 E46.13749
G1 X122.558 Y117.109 E46.1895
G1 X122.348 Y117.506 E46.24339
G1 X122.117 Y117.904 E46.29861
G1 X121.883 Y118.278 E46.35155
G1 X121.628 Y118.654 E46.40607
G1 X121.371 Y119.003 E46.45808
G1 X121.084 Y119.367 E46.5137
G1 X120.8 Y119.703 E46.5665
G1 X120.504 Y120.026 E46.61907
G1 X120.178 Y120.356 E46.67474
G1 X119.857 Y120.66 E46.72779
G1 X119.52 Y120.957 E46.78169
G1 X119.182 Y121.233 E46.83406
G0 F3600 X119.121 Y121.155
G0 X121.007 Y119.304
G0 X121.398 Y119.615
;TYPE:WALL-OUTER
G1 F2250 X121.095 Y119.973 E46.89034
G1 X120.789 Y120.307 E46.9447
G1 X120.463 Y120.637 E47.00036
G1 X120.122 Y120.96 E47.05672
G1 X119.782 Y121.26 E47.11114
G1 X119.424 Y121.552 E47.16657
G1 X119.055 Y121.832 E47.22216
G1 X118.677 Y122.098 E47.27762
G1 X118.284 Y122.353 E47.33384
G1 X117.894 Y122.588 E47.38848
G1 X117.49 Y122.812 E47.44391
G1 X117.077 Y123.02 E47.49941
G1 X116.651 Y123.217 E47.55573
G1 X116.232 Y123.394 E47.61031
G1 X115.799 Y123.556 E47.66579
G1 X115.354 Y123.705 E47.7221
G1 X114.918 Y123.835 E47.7767
G1 X114.463 Y123.953 E47.8331
G1 X114.019 Y124.049 E47.88761
G1 X113.557 Y124.134 E47.94398
G1 X113.106 Y124.198 E47.99865
G1 X112.647 Y124.248 E48.05405
G1 X112.179 Y124.281 E48.11035
G1 X111.717 Y124.298 E48.16583
G1 X111.262 Y124.298 E48.22043
G1 X110.793 Y124.281 E48.27675
G1 X110.339 Y124.247 E48.33138
G1 X109.873 Y124.195 E48.38765
G1 X109.423 Y124.13 E48.44221
G1 X108.961 Y124.045 E48.49858
G1 X108.517 Y123.948 E48.55311
G1 X108.062 Y123.829 E48.60955
G1 X107.626 Y123.699 E48.66415
G1 X107.181 Y123.549 E48.7205
G1 X106.749 Y123.386 E48.77591
G1 X106.328 Y123.209 E48.83071
G1 X105.904 Y123.012 E48.88681
G1 X105.499 Y122.806 E48.94134
G1 X105.088 Y122.578 E48.99774
G1 X104.698 Y122.342 E49.05244
G1 X104.305 Y122.086 E49.10872
G1 X103.934 Y121.825 E49.16316
G1 X103.566 Y121.543 E49.21879
G1 X103.203 Y121.246 E49.27507
G1 X102.862 Y120.946 E49.32958
G1 X102.522 Y120.622 E49.38593
G1 X102.198 Y120.292 E49.44143
G1 X101.891 Y119.957 E49.49596
G1 X101.588 Y119.599 E49.55224
G1 X101.302 Y119.235 E49.60779
G1 X101.029 Y118.862 E49.66326
G1 X100.774 Y118.485 E49.71787
G1 X100.526 Y118.087 E49.77415
G1 X100.298 Y117.693 E49.82877
G1 X100.078 Y117.278 E49.88514
G1 X99.878 Y116.862 E49.94053
G1 X99.691 Y116.438 E49.99614
G1 X99.523 Y116.016 E50.05064
G1 X99.367 Y115.574 E50.10689
G1 X99.227 Y115.133 E50.16241
G1 X99.104 Y114.688 E50.21781
G1 X98.997 Y114.239 E50.2732
G1 X98.905 Y113.784 E50.32891
G1 X98.831 Y113.329 E50.38422
