;FLAVOR:UltiGCode
;TIME:463
;MATERIAL:761
;MATERIAL2:0
;NOZZLE_DIAMETER:0.4
;Generated with Cura_SteamEngine 2.5.0

;LAYER_COUNT:33
;LAYER:0
M107
G0 F3600 X98.683 Y99.835 Z0.3
;TYPE:SKIRT
G1 F2400 X100.061 Y98.482 E0.23174
G1 X100.365 Y98.221 E0.27982
G1 X101.915 Y97.061 E0.51214
G1 X102.257 Y96.84 E0.56101
G1 X103.951 Y95.9 E0.79349
G1 X104.316 Y95.729 E0.84185
G1 X106.121 Y95.024 E1.07439
G1 X106.459 Y94.914 E1.11704
G1 X107.866 Y94.549 E1.29147
G1 X108.165 Y94.488 E1.32809
G1 X109.608 Y94.267 E1.50327
G1 X109.961 Y94.234 E1.54581
G1 X111.891 Y94.169 E1.77755
G1 X112.297 Y94.183 E1.8263
G1 X114.224 Y94.38 E2.05874
G1 X114.62 Y94.447 E2.10694
G1 X116.51 Y94.901 E2.34019
G1 X116.9 Y95.024 E2.38926
G1 X118.705 Y95.729 E2.6218
G1 X119.069 Y95.9 E2.67006
G1 X120.756 Y96.836 E2.90157
G1 X121.097 Y97.056 E2.95026
G1 X122.654 Y98.22 E3.18354
G1 X122.923 Y98.446 E3.2257
G1 X123.973 Y99.442 E3.39937
G1 X124.218 Y99.705 E3.44251
G1 X125.459 Y101.203 E3.67594
G1 X125.667 Y101.487 E3.71818
G1 X126.453 Y102.701 E3.89173
G1 X126.65 Y103.054 E3.94024
G1 X127.68 Y105.243 E4.23055
G1 X127.856 Y105.72 E4.29156
G1 X128.502 Y108.054 E4.58217
G1 X128.59 Y108.499 E4.6366
G1 X128.819 Y110.422 E4.86899
G1 X128.84 Y110.828 E4.91778
G1 X128.807 Y112.773 E5.15121
G1 X128.772 Y113.177 E5.19987
G1 X128.478 Y115.092 E5.43237
G1 X128.405 Y115.436 E5.47456
G1 X128.02 Y116.829 E5.64799
G1 X127.923 Y117.119 E5.68469
G1 X127.395 Y118.474 E5.8592
G1 X127.247 Y118.796 E5.90172
G1 X126.336 Y120.505 E6.13412
G1 X126.123 Y120.848 E6.18257
G1 X124.989 Y122.421 E6.41527
G1 X124.763 Y122.698 E6.45817
G1 X123.779 Y123.768 E6.63261
G1 X123.564 Y123.98 E6.66884
G1 X122.478 Y124.945 E6.84318
G1 X122.199 Y125.164 E6.88574
G1 X120.61 Y126.27 E7.11806
G1 X120.22 Y126.5 E7.17239
G1 X118.048 Y127.568 E7.46284
G1 X117.669 Y127.723 E7.51197
G1 X116.289 Y128.181 E7.68646
G1 X115.948 Y128.273 E7.72884
G1 X114.049 Y128.663 E7.96147
G1 X113.649 Y128.717 E8.00991
G1 X111.714 Y128.849 E8.24265
G1 X111.306 Y128.849 E8.29161
G1 X109.372 Y128.717 E8.52423
G1 X109.021 Y128.672 E8.56669
G1 X107.597 Y128.404 E8.74057
G1 X107.305 Y128.334 E8.77661
G1 X105.905 Y127.922 E8.95173
G1 X105.614 Y127.82 E8.98873
G1 X104.275 Y127.271 E9.1624
G1 X103.958 Y127.118 E9.20463
G1 X102.258 Y126.175 E9.43792
G1 X101.915 Y125.954 E9.48688
G1 X100.364 Y124.793 E9.71937
G1 X100.061 Y124.532 E9.76736
G1 X98.683 Y123.18 E9.99902
G1 X98.41 Y122.873 E10.04832
G1 X97.225 Y121.339 E10.28092
G1 X97.002 Y121.007 E10.32892
G1 X96.029 Y119.325 E10.5621
G1 X95.849 Y118.957 E10.61126
G1 X95.117 Y117.165 E10.84354
G1 X94.99 Y116.786 E10.89151
G1 X94.503 Y114.912 E11.12386
G1 X94.434 Y114.557 E11.16726
G1 X94.241 Y113.122 E11.34101
G1 X94.214 Y112.775 E11.38277
G1 X94.18 Y110.84 E11.61501
G1 X94.201 Y110.435 E11.66367
G1 X94.429 Y108.508 E11.89653
G1 X94.504 Y108.108 E11.94536
G1 X94.99 Y106.232 E12.17792
G1 X95.117 Y105.849 E12.22634
G1 X95.85 Y104.056 E12.45878
G1 X96.03 Y103.69 E12.50773
G1 X97.002 Y102.008 E12.74084
G1 X97.226 Y101.673 E12.7892
G1 X98.412 Y100.14 E13.02179
G1 X98.683 Y99.835 E13.07075
G0 F3600 X98.963 Y100.121
G1 F2400 X100.341 Y98.768 E13.30249
G1 X100.605 Y98.541 E13.34427
G1 X102.155 Y97.381 E13.57659
G1 X102.451 Y97.19 E13.61887
G1 X104.145 Y96.25 E13.85134
G1 X104.461 Y96.101 E13.89327
G1 X106.266 Y95.396 E14.1258
G1 X106.559 Y95.301 E14.16277
G1 X107.966 Y94.936 E14.33719
G1 X108.225 Y94.883 E14.36892
G1 X109.668 Y94.662 E14.5441
G1 X109.974 Y94.633 E14.58098
G1 X111.904 Y94.568 E14.81271
G1 X112.256 Y94.58 E14.85498
G1 X114.183 Y94.777 E15.08742
G1 X114.526 Y94.836 E15.12919
G1 X116.416 Y95.29 E15.36244
G1 X116.755 Y95.396 E15.40506
G1 X118.56 Y96.101 E15.6376
G1 X118.875 Y96.249 E15.67936
G1 X120.562 Y97.185 E15.91087
G1 X120.858 Y97.377 E15.95321
G1 X122.415 Y98.541 E16.18649
G1 X122.647 Y98.737 E16.22294
G1 X123.697 Y99.733 E16.39661
G1 X123.91 Y99.96 E16.43396
G1 X125.151 Y101.458 E16.66739
G1 X125.331 Y101.704 E16.70397
G1 X126.117 Y102.918 E16.87752
G1 X126.288 Y103.224 E16.91958
G1 X127.318 Y105.413 E17.20989
G1 X127.471 Y105.826 E17.26274
G1 X128.117 Y108.16 E17.55335
G1 X128.193 Y108.547 E17.60068
G1 X128.422 Y110.47 E17.83307
G1 X128.44 Y110.821 E17.87525
G1 X128.407 Y112.766 E18.10868
G1 X128.377 Y113.117 E18.15095
G1 X128.083 Y115.032 E18.38344
G1 X128.019 Y115.33 E18.42002
G1 X127.634 Y116.723 E18.59345
G1 X127.551 Y116.974 E18.62517
G1 X127.023 Y118.329 E18.79968
G1 X126.894 Y118.608 E18.83657
G1 X125.983 Y120.317 E19.06896
G1 X125.798 Y120.614 E19.11095
G1 X124.664 Y122.187 E19.34365
G1 X124.469 Y122.427 E19.38076
G1 X123.485 Y123.497 E19.5552
G1 X123.298 Y123.681 E19.58668
G1 X122.212 Y124.646 E19.76101
G1 X121.97 Y124.836 E19.79794
G1 X120.381 Y125.942 E20.03026
G1 X120.043 Y126.141 E20.07733
G1 X117.871 Y127.209 E20.36777
G1 X117.543 Y127.344 E20.41033
G1 X116.163 Y127.802 E20.58482
G1 X115.867 Y127.881 E20.62158
G1 X113.968 Y128.271 E20.85421
G1 X113.622 Y128.318 E20.89612
G1 X111.687 Y128.45 E21.12886
G1 X111.333 Y128.45 E21.17134
G1 X109.399 Y128.318 E21.40396
G1 X109.095 Y128.279 E21.44073
G1 X107.671 Y128.011 E21.61461
G1 X107.418 Y127.95 E21.64584
G1 X106.018 Y127.538 E21.82097
G1 X105.766 Y127.45 E21.853
G1 X104.427 Y126.901 E22.02666
G1 X104.152 Y126.769 E22.06327
G1 X102.452 Y125.826 E22.29655
G1 X102.155 Y125.633 E22.33905
G1 X100.604 Y124.472 E22.57154
G1 X100.341 Y124.247 E22.61307
G1 X98.963 Y122.895 E22.84473
G1 X98.726 Y122.628 E22.88757
G1 X97.541 Y121.094 E23.12018
G1 X97.348 Y120.807 E23.16168
G1 X96.375 Y119.125 E23.39486
G1 X96.219 Y118.806 E23.43748
G1 X95.487 Y117.014 E23.66976
G1 X95.378 Y116.685 E23.71135
G1 X94.891 Y114.811 E23.9437
G1 X94.83 Y114.504 E23.98126
G1 X94.637 Y113.069 E24.15501
G1 X94.614 Y112.768 E24.19124
G1 X94.58 Y110.833 E24.42348
G1 X94.598 Y110.482 E24.46565
G1 X94.826 Y108.555 E24.6985
G1 X94.891 Y108.208 E24.74087
G1 X95.377 Y106.332 E24.97342
G1 X95.487 Y106 E25.01539
G1 X96.22 Y104.207 E25.24784
G1 X96.376 Y103.89 E25.29023
G1 X97.348 Y102.208 E25.52335
G1 X97.543 Y101.918 E25.56529
G1 X98.729 Y100.385 E25.79787
G1 X98.963 Y100.121 E25.84021
G0 F3600 X99.244 Y100.406
G1 F2400 X100.622 Y99.053 E26.07195
G1 X100.845 Y98.862 E26.10718
G1 X102.395 Y97.702 E26.3395
G1 X102.646 Y97.539 E26.37542
G1 X104.34 Y96.599 E26.6079
G1 X104.607 Y96.474 E26.64327
G1 X106.412 Y95.769 E26.87581
G1 X106.66 Y95.688 E26.90712
G1 X108.067 Y95.323 E27.08154
G1 X108.286 Y95.278 E27.10837
G1 X109.729 Y95.057 E27.28355
G1 X109.988 Y95.033 E27.31477
G1 X111.918 Y94.968 E27.5465
G1 X112.216 Y94.978 E27.58228
G1 X114.143 Y95.175 E27.81472
G1 X114.433 Y95.225 E27.85004
G1 X116.323 Y95.679 E28.08329
G1 X116.609 Y95.769 E28.11927
G1 X118.414 Y96.474 E28.3518
G1 X118.681 Y96.599 E28.38718
G1 X120.368 Y97.535 E28.61869
G1 X120.618 Y97.697 E28.65444
G1 X122.175 Y98.861 E28.88772
G1 X122.372 Y99.027 E28.91863
G1 X123.422 Y100.023 E29.0923
G1 X123.602 Y100.215 E29.12388
G1 X124.843 Y101.713 E29.35732
G1 X124.996 Y101.921 E29.3883
G1 X125.782 Y103.135 E29.56185
G1 X125.926 Y103.394 E29.59741
G1 X126.956 Y105.583 E29.88772
G1 X127.085 Y105.933 E29.93248
G1 X127.731 Y108.267 E30.22309
G1 X127.796 Y108.594 E30.2631
G1 X128.025 Y110.517 E30.49549
G1 X128.04 Y110.814 E30.53117
G1 X128.007 Y112.759 E30.76461
G1 X127.982 Y113.056 E30.80037
G1 X127.688 Y114.971 E31.03286
G1 X127.634 Y115.223 E31.06379
G1 X127.249 Y116.616 E31.23722
G1 X127.178 Y116.829 E31.26416
G1 X126.65 Y118.184 E31.43867
G1 X126.541 Y118.42 E31.46986
G1 X125.63 Y120.129 E31.70226
G1 X125.474 Y120.381 E31.73783
G1 X124.34 Y121.954 E31.97052
G1 X124.174 Y122.156 E32.0019
G1 X123.19 Y123.226 E32.17634
G1 X123.032 Y123.382 E32.20298
G1 X121.946 Y124.347 E32.37732
G1 X121.742 Y124.508 E32.40851
G1 X120.153 Y125.614 E32.64083
G1 X119.867 Y125.782 E32.68063
G1 X117.695 Y126.85 E32.97107
G1 X117.417 Y126.964 E33.00713
G1 X116.037 Y127.422 E33.18161
G1 X115.787 Y127.489 E33.21267
G1 X113.888 Y127.879 E33.44531
G1 X113.595 Y127.919 E33.48079
G1 X111.66 Y128.051 E33.71353
G1 X111.36 Y128.051 E33.74953
G1 X109.426 Y127.919 E33.98215
G1 X109.169 Y127.886 E34.01325
G1 X107.745 Y127.618 E34.18713
G1 X107.531 Y127.567 E34.21353
G1 X106.131 Y127.155 E34.38865
G1 X105.917 Y127.08 E34.41586
G1 X104.578 Y126.531 E34.58952
G1 X104.346 Y126.419 E34.62044
G1 X102.646 Y125.476 E34.85372
G1 X102.395 Y125.313 E34.88963
G1 X100.844 Y124.152 E35.12212
G1 X100.621 Y123.961 E35.15736
G1 X99.243 Y122.609 E35.38901
G1 X99.043 Y122.384 E35.42514
G1 X97.858 Y120.85 E35.65775
G1 X97.695 Y120.607 E35.69286
G1 X96.722 Y118.925 E35.92604
G1 X96.589 Y118.655 E35.96216
G1 X95.857 Y116.863 E36.19444
G1 X95.765 Y116.584 E36.2297
G1 X95.278 Y114.71 E36.46205
G1 X95.227 Y114.45 E36.49384
G1 X95.034 Y113.015 E36.66759
G1 X95.014 Y112.761 E36.69817
G1 X94.98 Y110.826 E36.9304
G1 X94.995 Y110.529 E36.96609
G1 X95.223 Y108.602 E37.19894
G1 X95.278 Y108.308 E37.23483
G1 X95.764 Y106.432 E37.46738
G1 X95.858 Y106.151 E37.50294
G1 X96.591 Y104.358 E37.73539
G1 X96.722 Y104.09 E37.77118
G1 X97.694 Y102.408 E38.0043
G1 X97.859 Y102.163 E38.03975
G1 X99.045 Y100.63 E38.27233
G1 X99.244 Y100.406 E38.30829
G0 F3600 X99.524 Y100.692
G1 F2400 X100.902 Y99.339 E38.54003
G1 X101.084 Y99.182 E38.56887
G1 X102.634 Y98.022 E38.80119
G1 X102.84 Y97.889 E38.83062
G1 X104.534 Y96.949 E39.0631
G1 X104.752 Y96.846 E39.09203
G1 X106.557 Y96.141 E39.32457
G1 X106.76 Y96.076 E39.35014
G1 X108.167 Y95.711 E39.52457
G1 X108.347 Y95.674 E39.54663
G1 X109.79 Y95.453 E39.7218
G1 X110.001 Y95.433 E39.74724
G1 X111.931 Y95.368 E39.97897
G1 X112.175 Y95.376 E40.00826
G1 X114.102 Y95.573 E40.24071
G1 X114.339 Y95.614 E40.26957
G1 X116.229 Y96.068 E40.50282
G1 X116.464 Y96.141 E40.53235
G1 X118.269 Y96.846 E40.76489
G1 X118.487 Y96.949 E40.79382
G1 X120.174 Y97.885 E41.02533
G1 X120.379 Y98.017 E41.05459
G1 X121.936 Y99.181 E41.28787
G1 X122.097 Y99.317 E41.31316
G1 X123.147 Y100.313 E41.48683
G1 X123.294 Y100.471 E41.51273
G1 X124.535 Y101.969 E41.74616
G1 X124.66 Y102.139 E41.77148
G1 X125.446 Y103.353 E41.94503
G1 X125.564 Y103.565 E41.97415
G1 X126.594 Y105.754 E42.26445
G1 X126.7 Y106.04 E42.30105
G1 X127.346 Y108.374 E42.59166
G1 X127.398 Y108.641 E42.62431
G1 X127.627 Y110.564 E42.8567
G1 X127.64 Y110.808 E42.88602
G1 X127.607 Y112.753 E43.11945
G1 X127.586 Y112.995 E43.1486
G1 X127.292 Y114.91 E43.38109
G1 X127.248 Y115.117 E43.40649
G1 X126.863 Y116.51 E43.57991
G1 X126.805 Y116.684 E43.60192
G1 X126.277 Y118.039 E43.77643
G1 X126.188 Y118.232 E43.80194
G1 X125.277 Y119.941 E44.03433
G1 X125.149 Y120.147 E44.06344
G1 X124.015 Y121.72 E44.29614
G1 X123.88 Y121.885 E44.32172
G1 X122.896 Y122.955 E44.49616
G1 X122.767 Y123.083 E44.51797
G1 X121.681 Y124.048 E44.6923
G1 X121.513 Y124.179 E44.71787
G1 X119.924 Y125.285 E44.95019
G1 X119.69 Y125.423 E44.98279
G1 X117.518 Y126.491 E45.27323
G1 X117.291 Y126.584 E45.30267
G1 X115.911 Y127.042 E45.47715
G1 X115.706 Y127.097 E45.50262
G1 X113.807 Y127.487 E45.73526
G1 X113.568 Y127.52 E45.76421
G1 X111.633 Y127.652 E45.99695
G1 X111.387 Y127.652 E46.02647
G1 X109.453 Y127.52 E46.25909
G1 X109.243 Y127.493 E46.2845
G1 X107.819 Y127.225 E46.45838
G1 X107.644 Y127.183 E46.47997
G1 X106.244 Y126.771 E46.6551
G1 X106.069 Y126.709 E46.67738
G1 X104.73 Y126.16 E46.85104
G1 X104.54 Y126.069 E46.87632
G1 X102.84 Y125.126 E47.1096
G1 X102.634 Y124.993 E47.13903
G1 X101.083 Y123.832 E47.37151
G1 X100.901 Y123.676 E47.40028
G1 X99.523 Y122.324 E47.63194
G1 X99.36 Y122.139 E47.66152
G1 X98.175 Y120.605 E47.89413
G1 X98.041 Y120.406 E47.92292
G1 X97.068 Y118.724 E48.1561
G1 X96.96 Y118.504 E48.18551
G1 X96.228 Y116.712 E48.4178
G1 X96.152 Y116.484 E48.44664
G1 X95.665 Y114.61 E48.67899
G1 X95.623 Y114.397 E48.70504
G1 X95.43 Y112.962 E48.87879
G1 X95.414 Y112.754 E48.90382
G1 X95.38 Y110.819 E49.13606
G1 X95.392 Y110.576 E49.16526
G1 X95.62 Y108.649 E49.39811
G1 X95.666 Y108.409 E49.42743
G1 X96.152 Y106.533 E49.65998
G1 X96.228 Y106.303 E49.68905
G1 X96.961 Y104.51 E49.9215
G1 X97.069 Y104.29 E49.95091
G1 X98.041 Y102.608 E50.18403
G1 X98.175 Y102.408 E50.21291
G1 X99.361 Y100.875 E50.4455
G1 X99.524 Y100.692 E50.47491
G0 F3600 X99.804 Y100.977
G1 F2400 X101.182 Y99.624 E50.70665
G1 X101.324 Y99.502 E50.72912
G1 X102.874 Y98.342 E50.96144
G1 X103.034 Y98.239 E50.98427
G1 X104.728 Y97.299 E51.21675
G1 X104.898 Y97.219 E51.2393
G1 X106.703 Y96.514 E51.47183
G1 X106.86 Y96.463 E51.49164
G1 X108.267 Y96.098 E51.66607
G1 X108.407 Y96.069 E51.68323
G1 X109.85 Y95.848 E51.85841
G1 X110.015 Y95.833 E51.87829
G1 X111.945 Y95.768 E52.11002
G1 X112.134 Y95.774 E52.13271
G1 X114.061 Y95.971 E52.36515
G1 X114.246 Y96.003 E52.38768
G1 X116.136 Y96.457 E52.62094
G1 X116.318 Y96.514 E52.64382
G1 X118.123 Y97.219 E52.87636
G1 X118.293 Y97.299 E52.8989
G1 X119.98 Y98.235 E53.13042
G1 X120.139 Y98.338 E53.15315
G1 X121.696 Y99.502 E53.38643
G1 X121.821 Y99.607 E53.40602
G1 X122.871 Y100.603 E53.57969
G1 X122.986 Y100.726 E53.59989
G1 X124.227 Y102.224 E53.83333
G1 X124.324 Y102.356 E53.85298
G1 X125.11 Y103.57 E54.02653
G1 X125.202 Y103.735 E54.0492
G1 X126.232 Y105.924 E54.33951
G1 X126.314 Y106.147 E54.36802
G1 X126.96 Y108.481 E54.65863
G1 X127.001 Y108.688 E54.68395
G1 X127.23 Y110.611 E54.91634
G1 X127.24 Y110.801 E54.93917
G1 X127.207 Y112.746 E55.17261
G1 X127.191 Y112.934 E55.19525
G1 X126.897 Y114.849 E55.42774
G1 X126.862 Y115.01 E55.44751
G1 X126.477 Y116.403 E55.62094
G1 X126.432 Y116.538 E55.63802
G1 X125.904 Y117.893 E55.81253
G1 X125.835 Y118.044 E55.83245
G1 X124.924 Y119.753 E56.06485
G1 X124.825 Y119.913 E56.08742
G1 X123.691 Y121.486 E56.32012
G1 X123.585 Y121.615 E56.34016
G1 X122.601 Y122.685 E56.5146
G1 X122.501 Y122.784 E56.53148
G1 X121.415 Y123.749 E56.70582
G1 X121.285 Y123.851 E56.72565
G1 X119.696 Y124.957 E56.95797
G1 X119.514 Y125.064 E56.9833
G1 X117.342 Y126.132 E57.27375
G1 X117.165 Y126.205 E57.29672
G1 X115.785 Y126.663 E57.47121
G1 X115.626 Y126.705 E57.49094
G1 X113.727 Y127.095 E57.72358
G1 X113.54 Y127.121 E57.74623
G1 X111.605 Y127.253 E57.97897
G1 X111.415 Y127.253 E58.00177
G1 X109.481 Y127.121 E58.23439
G1 X109.317 Y127.1 E58.25423
G1 X107.893 Y126.832 E58.42811
G1 X107.757 Y126.799 E58.44491
G1 X106.357 Y126.387 E58.62003
G1 X106.221 Y126.339 E58.63734
G1 X104.882 Y125.79 E58.811
G1 X104.734 Y125.719 E58.8307
G1 X103.034 Y124.776 E59.06398
G1 X102.874 Y124.673 E59.08681
G1 X101.323 Y123.512 E59.3193
G1 X101.182 Y123.39 E59.34168
G1 X99.804 Y122.038 E59.57334
G1 X99.676 Y121.895 E59.59637
G1 X98.491 Y120.361 E59.82897
G1 X98.387 Y120.206 E59.85137
G1 X97.414 Y118.524 E60.08455
G1 X97.33 Y118.352 E60.10752
G1 X96.598 Y116.56 E60.33981
G1 X96.539 Y116.383 E60.3622
G1 X96.052 Y114.509 E60.59455
G1 X96.019 Y114.344 E60.61474
G1 X95.826 Y112.909 E60.78849
G1 X95.814 Y112.747 E60.80798
G1 X95.78 Y110.812 E61.04022
G1 X95.79 Y110.623 E61.06293
G1 X96.018 Y108.696 E61.29578
G1 X96.053 Y108.509 E61.31861
G1 X96.539 Y106.633 E61.55117
G1 X96.598 Y106.454 E61.57378
G1 X97.331 Y104.661 E61.80623
G1 X97.415 Y104.491 E61.82898
G1 X98.387 Y102.809 E62.0621
G1 X98.492 Y102.652 E62.08477
G1 X99.678 Y101.119 E62.31735
G1 X99.804 Y100.977 E62.34013
G0 F3600 X99.994 Y101.364
G1 F2400 X100.084 Y101.262 E62.35646
G1 X101.462 Y99.909 E62.5882
G1 X101.564 Y99.822 E62.60429
G1 X103.114 Y98.662 E62.83661
G1 X103.228 Y98.589 E62.85285
G1 X104.922 Y97.649 E63.08533
G1 X105.043 Y97.592 E63.10138
G1 X106.848 Y96.887 E63.33392
G1 X106.961 Y96.85 E63.34818
G1 X108.368 Y96.485 E63.52261
G1 X108.468 Y96.465 E63.53485
G1 X109.911 Y96.244 E63.71003
G1 X110.028 Y96.233 E63.72413
G1 X111.958 Y96.168 E63.95586
